tools/download-figma-icons/icons/solid/engine.svg

<svg width="24" height="24" viewBox="0 0 24 24" fill="none" xmlns="http://www.w3.org/2000/svg">
<path fill-rule="evenodd" clip-rule="evenodd" d="M24 9.75V18C24 19.2375 22.9867 20.25 21.75 20.25H19.5C19.0875 20.25 18.75 19.9125 18.75 19.5V18H18V21C18 21.4125 17.6625 21.75 17.25 21.75H8.25C8.025 21.75 7.815 21.6525 7.67175 21.4725L5.4375 18.75H3.75C3.33 18.75 3 18.4125 3 18V14.625H1.5V17.25C1.5 17.6625 1.1625 18 0.75 18C0.33 18 0 17.6625 0 17.25V10.5C0 10.0875 0.33 9.75 0.75 9.75C1.1625 9.75 1.5 10.0875 1.5 10.5V13.125H3V9.75C3 9.3375 3.33 9 3.75 9H4.98675V7.5C4.98675 7.0875 5.32575 6.75 5.73675 6.75H9.375V4.5H6.75C6.33 4.5 6 4.1625 6 3.75C6 3.3375 6.33 3 6.75 3H13.5C13.9125 3 14.25 3.3375 14.25 3.75C14.25 4.1625 13.9125 4.5 13.5 4.5H10.875V6.75H14.7367C14.9625 6.75 15.1718 6.8475 15.315 7.0275L18.1575 10.5H18.75V8.25C18.75 7.8375 19.0875 7.5 19.5 7.5H21.75C22.9867 7.5 24 8.5125 24 9.75Z" fill="black"/>
</svg>

<svg xmlns="http://www.w3.org/2000/svg" width="24" height="24" fill="none" viewBox="0 0 24 24"><path fill="currentColor" fill-rule="evenodd" d="M24 9.75V18a2.257 2.257 0 0 1-2.25 2.25H19.5a.75.75 0 0 1-.75-.75V18H18v3c0 .413-.337.75-.75.75h-9a.73.73 0 0 1-.578-.277L5.438 18.75H3.75A.747.747 0 0 1 3 18v-3.375H1.5v2.625c0 .413-.337.75-.75.75a.747.747 0 0 1-.75-.75V10.5c0-.412.33-.75.75-.75.413 0 .75.338.75.75v2.625H3V9.75c0-.412.33-.75.75-.75h1.237V7.5c0-.412.339-.75.75-.75h3.638V4.5H6.75A.747.747 0 0 1 6 3.75c0-.413.33-.75.75-.75h6.75c.412 0 .75.337.75.75 0 .412-.338.75-.75.75h-2.625v2.25h3.862a.73.73 0 0 1 .578.277l2.842 3.473h.593V8.25c0-.412.337-.75.75-.75h2.25A2.257 2.257 0 0 1 24 9.75" clip-rule="evenodd"/></svg>
